assets/icons/mouse-scroll.svg

<svg width="33" height="52" viewBox="0 0 33 52" fill="none" xmlns="http://www.w3.org/2000/svg">
<path d="M17.951 10.4805C17.5669 10.0933 17.045 9.875 16.5 9.875C15.955 9.875 15.4331 10.0933 15.049 10.4805C14.665 10.8676 14.45 11.3918 14.45 11.9375V18.1875C14.45 18.7332 14.665 19.2574 15.049 19.6445C15.4331 20.0317 15.955 20.25 16.5 20.25C17.045 20.25 17.5669 20.0317 17.951 19.6445C18.335 19.2574 18.55 18.7332 18.55 18.1875V11.9375C18.55 11.3918 18.335 10.8676 17.951 10.4805ZM28.4 35.375C28.4 38.5589 27.1453 41.6116 24.9132 43.8617C22.6812 46.1117 19.6548 47.375 16.5 47.375C13.3452 47.375 10.3188 46.1117 8.08685 43.8617C5.85471 41.6116 4.6 38.5589 4.6 35.375V16.625C4.6 13.4411 5.85471 10.3884 8.08685 8.1383C10.3188 5.8883 13.3452 4.625 16.5 4.625C19.6548 4.625 22.6812 5.8883 24.9132 8.1383C27.1453 10.3884 28.4 13.4411 28.4 16.625V35.375ZM16.5 0.5C12.2552 0.5 8.18514 2.19986 5.18487 5.22433C2.18474 8.24865 0.5 12.3497 0.5 16.625V35.375C0.5 39.6503 2.18474 43.7513 5.18487 46.7757C8.18514 49.8001 12.2552 51.5 16.5 51.5C20.7448 51.5 24.8149 49.8001 27.8151 46.7757C30.8153 43.7513 32.5 39.6503 32.5 35.375V16.625C32.5 12.3497 30.8153 8.24865 27.8151 5.22433C24.8149 2.19986 20.7448 0.5 16.5 0.5Z" fill="#FFDC00" stroke="#FFDC00"/>
</svg>

<svg xmlns="http://www.w3.org/2000/svg" width="33" height="52" fill="none" viewBox="0 0 33 52"><path fill="#FFDC00" stroke="#FFDC00" d="M17.951 10.48a2.044 2.044 0 0 0-2.902 0 2.069 2.069 0 0 0-.599 1.457v6.25c0 .546.215 1.07.599 1.457a2.044 2.044 0 0 0 2.902 0c.384-.387.599-.91.599-1.456v-6.25c0-.546-.215-1.07-.599-1.458ZM28.4 35.376c0 3.184-1.255 6.237-3.487 8.487a11.85 11.85 0 0 1-8.413 3.513 11.85 11.85 0 0 1-8.413-3.513A12.051 12.051 0 0 1 4.6 35.375v-18.75c0-3.184 1.255-6.237 3.487-8.487A11.85 11.85 0 0 1 16.5 4.625a11.85 11.85 0 0 1 8.413 3.513 12.051 12.051 0 0 1 3.487 8.487v18.75ZM16.5.5C12.255.5 8.185 2.2 5.185 5.224A16.19 16.19 0 0 0 .5 16.625v18.75a16.19 16.19 0 0 0 4.685 11.4c3 3.025 7.07 4.725 11.315 4.725 4.245 0 8.315-1.7 11.315-4.724A16.19 16.19 0 0 0 32.5 35.375v-18.75c0-4.275-1.685-8.376-4.685-11.4C24.815 2.2 20.745.5 16.5.5Z"/></svg>
